X:1
T:I'll Never Say Never Again
T:I'll Never Say Never Again
C:Harry Woods
Z:All Rights Reserved
L:1/4
M:2/2
K:F
V:1 treble nm="Piano" snm="Pno."
%%MIDI program 0
V:1
 z2 z c |:"C7" c/=B/ c _B/A/ B | A A/G/- G c |"F" F F E E | D D/E/- E2 |"Gm7" F/ F F/"C7" E E | %6
w: I'll|nev- er say "nev- er a-|gain," a- gain, _ Cause|here I am in|love a- gain, _|Head o- ver heels in|
"Gm" D D/E/-"C7" E"C+" C |"F" A4- | A3 c |"C7" c/=B/ c _B/A/ B | A A/G/- G c |"F" F F E E | %12
w: love a- gain _ with|you!|_ I'll|nev- er say "Nev- er kiss|you a- gain," _ Cause|here I'm kiss- ing|
 D D/E/- E2 |"Gm7" F/ F F/"C7" E E |"Gm" D D/E/-"C7" E"C+" C |"F""Bb" F4- |"F" F z z2 | %17
w: you a- gain. _|That's just the thing I|said I'd nev- * er|do.|_|
 z/"F7" F/G/F/ G"Fdim" G |"F7" G F/A/- A2 |"Bb" z G/F/ G"F+" G |"Bb" G F/A/- A2 | %21
w: I walked a- way and|said "good- bye," _|I was hast- y|was- n't I? _|
"G7" z G/4A/G/4 A"Gdim" A |"G9" A G/=B/-"G7" B ^F/G/ |"C7" c =B/>c/ _B d/>B/ | A/^G/A/=G/- G c | %25
w: I missed you so I|thought I'd die, _ but it's|all o- ver now, throw my|hat in the sky! _ I'll|
"C7" c/=B/ c"Gm" _B/A/ B |"C" A A/G/- G c |"F" F F E E | D D/E/- E2 |"Gm7" F/ F F/"C7" E E | %30
w: nev- er say "Nev- er" a-|gain," a- gain, _ Cause|here I am in|love a- gain. _|Head o- ver heels in|
"Gm" D D/E/-"C7" E/D/"C+" C |"G7" A2"C7" A2 |1"F" F2"Gm" z"Adim7" c :|2"F" F2- F z |] %34
w: love a- gain _ with the|same sweet|you! I'll|you! _|

